treebolic-glue-android/artwork/toolbar_narrow.svg

<?xml version="1.0" encoding="UTF-8" standalone="no"?>
<!-- Generator: Adobe Illustrator 14.0.0, SVG Export Plug-In . SVG Version: 6.00 Build 43363)  -->

<svg
	xmlns:dc="http://purl.org/dc/elements/1.1/"
	xmlns:cc="http://creativecommons.org/ns#"
	xmlns:rdf="http://www.w3.org/1999/02/22-rdf-syntax-ns#"
	xmlns="http://www.w3.org/2000/svg"
	xmlns:sodipodi="http://sodipodi.sourceforge.net/DTD/sodipodi-0.dtd"
	xmlns:inkscape="http://www.inkscape.org/namespaces/inkscape"
	version="1.1"
	x="0px"
	y="0px"
	width="136.53334"
	height="136.53334"
	viewBox="0 0 128 128"
	enable-background="new 0 0 780 650"
	xml:space="preserve"
	id="svg2"
	inkscape:version="0.92.1 r15371"
	sodipodi:docname="toolbar_narrow.svg"><metadata
     id="metadata1456"><rdf:RDF><cc:Work
         rdf:about=""><dc:format>image/svg+xml</dc:format><dc:type
	rdf:resource="http://purl.org/dc/dcmitype/StillImage"/></cc:Work></rdf:RDF></metadata>
	<defs
		id="defs1454"><clipPath
       clipPathUnits="userSpaceOnUse"
       id="clipPath9180"><ellipse
         style="fill:#a9a9a9;fill-opacity:1;fill-rule:evenodd;stroke:none"
         id="path9182"
         transform="matrix(1.3993902,0,0,1.1907217,3.486295,1.0575123)"
         cx="43.980995"
         cy="52.105968"
         rx="43.980995"
         ry="52.026299" /></clipPath>
		<clipPath
			clipPathUnits="userSpaceOnUse"
			id="clipPath9184"><ellipse
         style="fill:#a9a9a9;fill-opacity:1;fill-rule:evenodd;stroke:none"
         id="path9186"
         transform="matrix(0.1815424,0,0,0.1544719,788.01368,700.63965)"
         cx="43.980995"
         cy="52.105968"
         rx="43.980995"
         ry="52.026299" /></clipPath>
		<linearGradient
			id="linearGradient3187"><stop
         id="stop3189"
         offset="0"
         style="stop-color:#081074;stop-opacity:1;" />
			<stop
				style="stop-color:#5873c2;stop-opacity:1;"
				offset="0.5"
				id="stop3191"/>
			<stop
				id="stop3193"
				offset="0.75"
				style="stop-color:#0f99d2;stop-opacity:1;"/>
			<stop
				style="stop-color:#1660d4;stop-opacity:0.6156863;"
				offset="0.9375"
				id="stop3290"/>
			<stop
				style="stop-color:#414cf6;stop-opacity:0.21568628;"
				offset="1"
				id="stop3292"/></linearGradient>
		<linearGradient
			id="linearGradient5458"><stop
         id="stop5460"
         offset="0"
         style="stop-color:#081074;stop-opacity:1;" />
			<stop
				style="stop-color:#5873c2;stop-opacity:1;"
				offset="0.5"
				id="stop5462"/>
			<stop
				id="stop5464"
				offset="0.75"
				style="stop-color:#0f99d2;stop-opacity:1;"/>
			<stop
				style="stop-color:#1660d4;stop-opacity:0.6156863;"
				offset="0.9375"
				id="stop5466"/>
			<stop
				style="stop-color:#414cf6;stop-opacity:0.21568628;"
				offset="1"
				id="stop5468"/></linearGradient>
		<linearGradient
			id="linearGradient5485"><stop
         id="stop5487"
         offset="0"
         style="stop-color:#081074;stop-opacity:1;" />
			<stop
				style="stop-color:#5873c2;stop-opacity:1;"
				offset="0.5"
				id="stop5489"/>
			<stop
				id="stop5491"
				offset="0.75"
				style="stop-color:#0f99d2;stop-opacity:1;"/>
			<stop
				style="stop-color:#1660d4;stop-opacity:0.6156863;"
				offset="0.9375"
				id="stop5493"/>
			<stop
				style="stop-color:#414cf6;stop-opacity:0.21568628;"
				offset="1"
				id="stop5495"/></linearGradient>
		<filter
			inkscape:label="Desaturate"
			x="0"
			y="0"
			width="1"
			height="1"
			inkscape:menu="Color"
			inkscape:menu-tooltip="Render in shades of gray by reducing saturation to zero"
			id="filter3216"
			style="color-interpolation-filters:sRGB"><feColorMatrix
         type="saturate"
         values="0"
         id="feColorMatrix3218" /></filter>
		<filter
			inkscape:label="Desaturate"
			x="0"
			y="0"
			width="1"
			height="1"
			inkscape:menu="Color"
			inkscape:menu-tooltip="Render in shades of gray by reducing saturation to zero"
			id="filter3220"
			style="color-interpolation-filters:sRGB"><feColorMatrix
         type="saturate"
         values="0"
         id="feColorMatrix3222" /></filter>
		<filter
			inkscape:label="Desaturate"
			x="0"
			y="0"
			width="1"
			height="1"
			inkscape:menu="Color"
			inkscape:menu-tooltip="Render in shades of gray by reducing saturation to zero"
			id="filter3224"
			style="color-interpolation-filters:sRGB"><feColorMatrix
         type="saturate"
         values="0"
         id="feColorMatrix3226" /></filter>
		<clipPath
			id="clipPath9180-5"
			clipPathUnits="userSpaceOnUse"><ellipse
         ry="52.026299"
         rx="43.980995"
         cy="52.105968"
         cx="43.980995"
         transform="matrix(1.3993902,0,0,1.1907217,3.486295,1.0575123)"
         id="path9182-3"
         style="fill:#a9a9a9;fill-opacity:1;fill-rule:evenodd;stroke:none" /></clipPath>
		<clipPath
			id="clipPath9184-5"
			clipPathUnits="userSpaceOnUse"><ellipse
         ry="52.026299"
         rx="43.980995"
         cy="52.105968"
         cx="43.980995"
         transform="matrix(0.1815424,0,0,0.1544719,788.01368,700.63965)"
         id="path9186-6"
         style="fill:#a9a9a9;fill-opacity:1;fill-rule:evenodd;stroke:none" /></clipPath></defs>
	<sodipodi:namedview
		pagecolor="#ffffff"
		bordercolor="#666666"
		borderopacity="1"
		objecttolerance="10"
		gridtolerance="10"
		guidetolerance="10"
		inkscape:pageopacity="0"
		inkscape:pageshadow="2"
		inkscape:window-width="1182"
		inkscape:window-height="848"
		id="namedview1452"
		showgrid="false"
		inkscape:zoom="4.6069334"
		inkscape:cx="68.26667"
		inkscape:cy="68.26667"
		inkscape:window-x="672"
		inkscape:window-y="160"
		inkscape:window-maximized="0"
		inkscape:current-layer="svg2"/>
	<g
		id="Help"
		transform="matrix(7.7083383,0,0,7.7083383,-6070.7897,-5399.7099)"
		clip-path="url(#clipPath9184)"><path
       d="m 509.778,597.159 c -12.427,0 -22.5,10.074 -22.5,22.5 0,12.428 10.073,22.5 22.5,22.5 12.427,0 22.5,-10.072 22.5,-22.5 -10e-4,-12.426 -10.073,-22.5 -22.5,-22.5 z m -0.559,36.414 c -1.676,0 -3.054,-1.379 -3.054,-3.055 0,-1.676 1.378,-3.053 3.054,-3.053 1.677,0 3.054,1.377 3.054,3.053 0,1.676 -1.377,3.055 -3.054,3.055 z m 2.904,-11.791 c -0.892,1.305 -0.594,3.129 -3.052,3.129 -1.602,0 -2.385,-1.305 -2.385,-2.496 0,-4.432 6.519,-5.436 6.519,-9.086 0,-2.012 -1.34,-3.203 -3.576,-3.203 -4.767,0 -2.905,4.916 -6.518,4.916 -1.304,0 -2.421,-0.783 -2.421,-2.271 0,-3.65 4.172,-6.891 8.714,-6.891 4.769,0 9.46,2.197 9.46,7.449 10e-4,4.842 -5.55,6.703 -6.741,8.453 z"
       id="path695"
       inkscape:connector-curvature="0"
       style="fill:#333333" /></g>
	<style
		id="style8"
		type="text/css">
      .Border { fill: lightGray; stroke: black; stroke-width: 4; }
      .Label { font-size:24; font-family:Arial; fill:black; }
   </style>
	<style
		id="style8-7"
		type="text/css">
      .Border { fill: lightGray; stroke: black; stroke-width: 4; }
      .Label { font-size:24; font-family:Arial; fill:black; }
   </style>
	<style
		id="style8-3"
		type="text/css">
      .Border { fill: lightGray; stroke: black; stroke-width: 4; }
      .Label { font-size:24; font-family:Arial; fill:black; }
   </style>
	<style
		id="style8-6"
		type="text/css">
      .Border { fill: lightGray; stroke: black; stroke-width: 4; }
      .Label { font-size:24; font-family:Arial; fill:black; }
   </style>
	<style
		type="text/css"
		id="style8-1">
      .Border { fill: lightGray; stroke: black; stroke-width: 4; }
      .Label { font-size:24; font-family:Arial; fill:black; }
   </style>
	<style
		type="text/css"
		id="style8-7-0">
      .Border { fill: lightGray; stroke: black; stroke-width: 4; }
      .Label { font-size:24; font-family:Arial; fill:black; }
   </style>
	<style
		type="text/css"
		id="style8-3-2">
      .Border { fill: lightGray; stroke: black; stroke-width: 4; }
      .Label { font-size:24; font-family:Arial; fill:black; }
   </style>
	<style
		type="text/css"
		id="style8-6-7">
      .Border { fill: lightGray; stroke: black; stroke-width: 4; }
      .Label { font-size:24; font-family:Arial; fill:black; }
   </style>
	<path
		style="fill:#333333;fill-opacity:1;fill-rule:evenodd;stroke:none"
		d=""
		id="path7612"
		inkscape:connector-curvature="0"
		clip-path="url(#clipPath9180)"/>
	<g
		id="g4611"
		transform="translate(1.4944206)"><path
       inkscape:connector-curvature="0"
       id="path4017"
       d="m 68.009452,95.531414 c 4.574712,-3.735785 19.627746,-14.262116 20.059426,-14.027217 0.504973,0.274784 0.376506,31.423623 -0.131378,31.854493 -0.195133,0.16554 -4.93647,-3.08589 -10.536303,-7.22539 -5.599833,-4.13951 -10.579869,-7.747959 -11.066745,-8.018773 -0.628627,-0.349658 -0.143091,-1.098431 1.675,-2.583113 z"
       style="fill:#c0c0c0;fill-opacity:1;fill-rule:evenodd;stroke:none" />
		<path
			inkscape:connector-curvature="0"
			id="path4019"
			d="m 36.704667,97.14474 c 0.11951,-8.581233 0.344079,-15.830161 0.499045,-16.108729 0.349871,-0.628934 25.233079,15.192274 25.166692,16.001453 -0.06059,0.738482 -25.310919,16.567046 -25.640451,16.073116 -0.133417,-0.19998 -0.144795,-7.3846 -0.02529,-15.96584 z"
			style="fill:#c0c0c0;fill-opacity:1;fill-rule:evenodd;stroke:none"/></g>
	<path
		style="fill:#333333;fill-opacity:1;fill-rule:evenodd;stroke:none"
		d=""
		id="path4021"
		inkscape:connector-curvature="0"/>
	<path
		style="fill:#333333;fill-opacity:1;fill-rule:evenodd;stroke:none"
		d=""
		id="path4025"
		inkscape:connector-curvature="0"/>
	<style
		type="text/css"
		id="style8-2">
      .Border { fill: lightGray; stroke: black; stroke-width: 4; }
      .Label { font-size:24; font-family:Arial; fill:black; }
   </style>
	<style
		type="text/css"
		id="style8-7-7">
      .Border { fill: lightGray; stroke: black; stroke-width: 4; }
      .Label { font-size:24; font-family:Arial; fill:black; }
   </style>
	<style
		type="text/css"
		id="style8-3-0">
      .Border { fill: lightGray; stroke: black; stroke-width: 4; }
      .Label { font-size:24; font-family:Arial; fill:black; }
   </style>
	<style
		type="text/css"
		id="style8-6-9">
      .Border { fill: lightGray; stroke: black; stroke-width: 4; }
      .Label { font-size:24; font-family:Arial; fill:black; }
   </style>
	<style
		id="style8-1-3"
		type="text/css">
      .Border { fill: lightGray; stroke: black; stroke-width: 4; }
      .Label { font-size:24; font-family:Arial; fill:black; }
   </style>
	<style
		id="style8-7-0-6"
		type="text/css">
      .Border { fill: lightGray; stroke: black; stroke-width: 4; }
      .Label { font-size:24; font-family:Arial; fill:black; }
   </style>
	<style
		id="style8-3-2-0"
		type="text/css">
      .Border { fill: lightGray; stroke: black; stroke-width: 4; }
      .Label { font-size:24; font-family:Arial; fill:black; }
   </style>
	<style
		id="style8-6-7-6"
		type="text/css">
      .Border { fill: lightGray; stroke: black; stroke-width: 4; }
      .Label { font-size:24; font-family:Arial; fill:black; }
   </style>
	<g
		id="Help-9"
		transform="matrix(7.7083383,0,0,7.7083383,-6375.7309,-5435.0147)"
		clip-path="url(#clipPath9184-5)"><path
       d="m 509.778,597.159 c -12.427,0 -22.5,10.074 -22.5,22.5 0,12.428 10.073,22.5 22.5,22.5 12.427,0 22.5,-10.072 22.5,-22.5 -10e-4,-12.426 -10.073,-22.5 -22.5,-22.5 z m -0.559,36.414 c -1.676,0 -3.054,-1.379 -3.054,-3.055 0,-1.676 1.378,-3.053 3.054,-3.053 1.677,0 3.054,1.377 3.054,3.053 0,1.676 -1.377,3.055 -3.054,3.055 z m 2.904,-11.791 c -0.892,1.305 -0.594,3.129 -3.052,3.129 -1.602,0 -2.385,-1.305 -2.385,-2.496 0,-4.432 6.519,-5.436 6.519,-9.086 0,-2.012 -1.34,-3.203 -3.576,-3.203 -4.767,0 -2.905,4.916 -6.518,4.916 -1.304,0 -2.421,-0.783 -2.421,-2.271 0,-3.65 4.172,-6.891 8.714,-6.891 4.769,0 9.46,2.197 9.46,7.449 10e-4,4.842 -5.55,6.703 -6.741,8.453 z"
       id="path695-1"
       inkscape:connector-curvature="0"
       style="fill:#333333" /></g>
	<path
		style="fill:#333333;fill-opacity:1;fill-rule:evenodd;stroke:none"
		d=""
		id="path7612-2"
		inkscape:connector-curvature="0"
		clip-path="url(#clipPath9180-5)"
		transform="translate(-304.94118,-35.304773)"/>
	<path
		style="fill:#333333;fill-opacity:1;fill-rule:evenodd;stroke:none"
		d=""
		id="path4021-6"
		inkscape:connector-curvature="0"/>
	<path
		style="fill:#333333;fill-opacity:1;fill-rule:evenodd;stroke:none"
		d=""
		id="path4025-1"
		inkscape:connector-curvature="0"/>
	<g
		id="g4620"
		transform="translate(-0.27109154,-0.06276755)"><path
       sodipodi:nodetypes="cccccccc"
       inkscape:connector-curvature="0"
       id="path3855"
       d="m 63.824682,31.114843 -28.934348,30.0918 C 32.979952,59.252377 30.374895,57.42218 28.93958,55.234355 40.62643,42.920308 49.365,34.174292 62.06916,21.306627 62.58402,20.715889 64.47449,20.179735 65.69082,21.108863 77.527,33.191741 86.87461,42.305824 99.06042,55.502771 97.3794,57.354814 95.919322,59.302723 94.159556,61.413614 83.486016,51.173758 74.549052,41.288805 63.824682,31.114843 Z"
       style="fill:#c0c0c0;fill-opacity:1;fill-rule:evenodd;stroke:none;stroke-width:1;stroke-opacity:1" />
		<path
			inkscape:connector-curvature="0"
			id="path4015-8"
			d="m 24.532184,80.522054 c -11.49921,-3.25239 -16.7903802,-16.33668 -10.54771,-26.082907 9.21287,-14.383418 31.775574,-6.410231 30.477159,10.769957 -0.76466,10.11773 -10.863384,17.87717 -19.929449,15.31295 z"
			style="fill:#c0c0c0;fill-opacity:1;fill-rule:evenodd;stroke:none;stroke-width:1.04750836"/>
		<path
			style="fill:#c0c0c0;fill-opacity:1;fill-rule:evenodd;stroke:none;stroke-width:1.05521846"
			d="M 97.225519,80.766178 C 85.726319,77.465727 80.435149,64.188119 86.677819,54.297872 95.890699,39.701945 118.45339,47.79293 117.15497,65.226979 116.39031,75.4942 106.29159,83.368284 97.225519,80.766178 Z"
			id="path4027-4"
			inkscape:connector-curvature="0"/></g></svg>

<svg xmlns="http://www.w3.org/2000/svg" xml:space="preserve" width="136.533" height="136.533" viewBox="0 0 128 128"><defs><clipPath id="a" clipPathUnits="userSpaceOnUse"><ellipse cx="43.981" cy="52.106" rx="43.981" ry="52.026" style="fill:#a9a9a9;fill-opacity:1;fill-rule:evenodd;stroke:none" transform="matrix(.18154 0 0 .15447 788.014 700.64)"/></clipPath><clipPath id="b" clipPathUnits="userSpaceOnUse"><ellipse cx="43.981" cy="52.106" rx="43.981" ry="52.026" style="fill:#a9a9a9;fill-opacity:1;fill-rule:evenodd;stroke:none" transform="matrix(.18154 0 0 .15447 788.014 700.64)"/></clipPath></defs><g clip-path="url(#a)" transform="translate(-6070.79 -5399.71)scale(7.70834)"><path d="M509.778 597.159c-12.427 0-22.5 10.074-22.5 22.5 0 12.428 10.073 22.5 22.5 22.5s22.5-10.072 22.5-22.5c-.001-12.426-10.073-22.5-22.5-22.5zm-.559 36.414a3.069 3.069 0 0 1-3.054-3.055 3.067 3.067 0 0 1 3.054-3.053 3.066 3.066 0 0 1 3.054 3.053 3.068 3.068 0 0 1-3.054 3.055zm2.904-11.791c-.892 1.305-.594 3.129-3.052 3.129-1.602 0-2.385-1.305-2.385-2.496 0-4.432 6.519-5.436 6.519-9.086 0-2.012-1.34-3.203-3.576-3.203-4.767 0-2.905 4.916-6.518 4.916-1.304 0-2.421-.783-2.421-2.271 0-3.65 4.172-6.891 8.714-6.891 4.769 0 9.46 2.197 9.46 7.449.001 4.842-5.55 6.703-6.741 8.453z" style="fill:#333"/></g><path d="M68.01 95.531c4.574-3.735 19.627-14.262 20.059-14.027.505.275.376 31.424-.132 31.855-.195.165-4.936-3.086-10.536-7.226-5.6-4.14-10.58-7.748-11.067-8.018-.628-.35-.143-1.099 1.675-2.584zm-31.305 1.614c.12-8.581.344-15.83.499-16.109.35-.629 25.233 15.192 25.166 16.001-.06.739-25.31 16.568-25.64 16.074-.133-.2-.145-7.385-.025-15.966z" style="fill:silver;fill-opacity:1;fill-rule:evenodd;stroke:none" transform="translate(1.494)"/><g clip-path="url(#b)" transform="translate(-6375.73 -5435.015)scale(7.70834)"><path d="M509.778 597.159c-12.427 0-22.5 10.074-22.5 22.5 0 12.428 10.073 22.5 22.5 22.5s22.5-10.072 22.5-22.5c-.001-12.426-10.073-22.5-22.5-22.5zm-.559 36.414a3.069 3.069 0 0 1-3.054-3.055 3.067 3.067 0 0 1 3.054-3.053 3.066 3.066 0 0 1 3.054 3.053 3.068 3.068 0 0 1-3.054 3.055zm2.904-11.791c-.892 1.305-.594 3.129-3.052 3.129-1.602 0-2.385-1.305-2.385-2.496 0-4.432 6.519-5.436 6.519-9.086 0-2.012-1.34-3.203-3.576-3.203-4.767 0-2.905 4.916-6.518 4.916-1.304 0-2.421-.783-2.421-2.271 0-3.65 4.172-6.891 8.714-6.891 4.769 0 9.46 2.197 9.46 7.449.001 4.842-5.55 6.703-6.741 8.453z" style="fill:#333"/></g><path d="M63.825 31.115 34.89 61.207c-1.91-1.955-4.515-3.785-5.95-5.973 11.686-12.314 20.425-21.06 33.13-33.927.514-.591 2.404-1.127 3.62-.198 11.837 12.083 21.185 21.197 33.37 34.394-1.68 1.852-3.14 3.8-4.9 5.91-10.674-10.24-19.61-20.124-30.335-30.298Z" style="fill:silver;fill-opacity:1;fill-rule:evenodd;stroke:none;stroke-width:1;stroke-opacity:1" transform="translate(-.271 -.063)"/><path d="M24.532 80.522C13.033 77.27 7.742 64.185 13.984 54.44c9.213-14.383 31.776-6.41 30.478 10.77-.765 10.118-10.864 17.877-19.93 15.313z" style="fill:silver;fill-opacity:1;fill-rule:evenodd;stroke:none;stroke-width:1.04750836" transform="translate(-.271 -.063)"/><path d="M97.226 80.766c-11.5-3.3-16.79-16.578-10.548-26.468 9.213-14.596 31.775-6.505 30.477 10.929-.765 10.267-10.863 18.141-19.93 15.54Z" style="fill:silver;fill-opacity:1;fill-rule:evenodd;stroke:none;stroke-width:1.05521846" transform="translate(-.271 -.063)"/></svg>
